X:1
T:Erika
C:Jean Paul Runigo, abc file by Bernard Loffet
L:1/8
Q:240
M:2/2
K:C
z2[GG,]c[B3/2G,3/2]c/[dG,]e|:[c2C,2][d3/2C,3/2]e/[fF,]e[dF,]c|[d2G,2][GG,]c[B3/2G,3/2]c/[dG,]e|[c2C,2][d3/2C,3/2]e/[fF,]e[dF,]c|1[d2G,2][GG,]c[B3/2G,3/2]c/[dG,]e:|2[d2G,2][e3/2G,3/2]f/[gG,]f[eG,]g| \
|:[c2A,2][d3/2A,3/2]e/[fF,]e[dF,]c|[d2G,2][e3/2G,3/2]f/[gE,]f[eE,]g|[c2A,2][d3/2A,3/2]e/[fF,]e[dG,]e|1[c2C,2][e3/2C,3/2]f/[gG,]f[eG,]g:|2[c8C,8]| \
Z:Created with TablEdit http://www.tabledit.com/ by Bernard Loffet



